X: 1
T: Veselinovo Horo 1
O: Bulgaria
Z: 2017 John Chambers <jc:trillian.mit.edu>
S: Handwritten MS at http://folkloretanznoten.de
L: 1/8
M: 6/8
K: Bb
"A"|:\
d2e gge | f2g ffe | gfe d2B | c2B BBF |
A2B c2B | dec d2c |[1 d2c c2B | d2e f2z :|[2 d2c c2d | B3 B3 ||
"B"|:::\
A2B c2B | dec d2c | d2c [1 c2B | d2e fz2 :|[1,4 c2d | B3 B3 :|
"C"|::\
F3 B3 | _d6 | e_dc Bcd | c2B =AAF |
F3 =A3 | c3 F3 | e_dc Bcd | c2B B3 ::|
P: A
P: C
